X:8
T:Frieze Breeches, The
R:slide
H:See also jig #86
D:Paddy Glackin: Ceol ar an bhFidil le Paddy Glackin
D:Matt Molloy: Heathery Breeze
Z:id:hn-slide-8
M:6/8
K:Dmix
D2E F2G|A2d cAG|A2d cAG|A3 A3|D2E F2G|A2d cAG|F2A G2E|D3 D3:|
|:d2e f2d|e2d cAG|A2d cAG|A3 A3|d2e f2d|e2d cAG|F2A G2E|D3 D3:|
P:variations
|:D2E F2G|A2d cAG|~A3 BAG|A3 AFA|D2E F2G|A2d cAG|F2A G2E|D3 D3:|
|:d2e fed|e2d cAG|~A3 BAG|A3 AFA|d2e fed|e2d cAG|F2A G2E|D3 D3:|
<end>
<start>
